app/client/src/assets/icons/blueprintjs/20px/remove-column.svg

<svg xmlns="http://www.w3.org/2000/svg" xml:space="preserve" viewBox="0 0 20 20"><path fill-rule="evenodd" d="M19 0H5c-.55 0-1 .45-1 1v4h2V2h5v16H6v-3H4v4c0 .55.45 1 1 1h14c.55 0 1-.45 1-1V1c0-.55-.45-1-1-1zm-1 18h-5V2h5v16zM6.29 13.71a1.003 1.003 0 0 0 1.42-1.42L5.41 10 7.7 7.71c.19-.18.3-.43.3-.71a1.003 1.003 0 0 0-1.71-.71L4 8.59l-2.29-2.3A1.003 1.003 0 0 0 .29 7.71L2.59 10 .3 12.29c-.19.18-.3.43-.3.71a1.003 1.003 0 0 0 1.71.71L4 11.41l2.29 2.3z" clip-rule="evenodd"/></svg>

<?xml version="1.0" encoding="utf-8"?>
<!-- Generator: Adobe Illustrator 18.0.0, SVG Export Plug-In . SVG Version: 6.00 Build 0)  -->
<svg version="1.1" id="Layer_1" xmlns="http://www.w3.org/2000/svg" xmlns:xlink="http://www.w3.org/1999/xlink" x="0px" y="0px"
	 viewBox="0 0 20 20" enable-background="new 0 0 20 20" xml:space="preserve">
<g id="remove_column_1_">
	<g>
		<path fill-rule="evenodd" clip-rule="evenodd" d="M19,0H5C4.45,0,4,0.45,4,1v4h2V2h5v16H6v-3H4v4c0,0.55,0.45,1,1,1h14
			c0.55,0,1-0.45,1-1V1C20,0.45,19.55,0,19,0z M18,18h-5V2h5V18z M6.29,13.71C6.47,13.89,6.72,14,7,14c0.55,0,1-0.45,1-1
			c0-0.28-0.11-0.53-0.29-0.71L5.41,10l2.29-2.29C7.89,7.53,8,7.28,8,7c0-0.55-0.45-1-1-1C6.72,6,6.47,6.11,6.29,6.29L4,8.59
			L1.71,6.29C1.53,6.11,1.28,6,1,6C0.45,6,0,6.45,0,7c0,0.28,0.11,0.53,0.29,0.71L2.59,10l-2.29,2.29C0.11,12.47,0,12.72,0,13
			c0,0.55,0.45,1,1,1c0.28,0,0.53-0.11,0.71-0.29L4,11.41L6.29,13.71z"/>
	</g>
</g>
</svg>
